X: 36048
T: Scartaglen, The
R: reel
M: 4/4
K: Dmajor
|:D2 ED FAdB|A2 FD EBce|D2 ED FAdB|AFEF DEFA|
d4 B4|AGFD EBce|D2 ED FAdB|AFEG FDDB:|
|:Adfd edfd|Adfd edBd|Adfd edfd|AFDE FEEB|
Adfd edfd|Adfd edBd|g3e f3d|AFDE FD D2:|

